X:13
T:वायुः वनम् अग्निः पर्वतः / 風林火山
M:4/4
L:1/8
Q:1/4=141
K:Am
|: A,2 EA cEAc | F,2 CF ACFA | D,2 A,D FADF | E,2 B,E GBEB :|
| a2 e2 c2 A2 | f2 c2 A2 F2 | d2 A2 F2 D2 | e2 B2 G2 E2 |
